img/window.svg

<svg xmlns="http://www.w3.org/2000/svg" viewBox="0 0 370 280" enable-background="new 0 0 370 280"><pattern x="-215.8" y="-160.1" width="110" height="115" patternUnits="userSpaceOnUse" id="b" viewBox="0 -115 110 115" overflow="visible"><path d="M0-115h110v115h-110z" fill="none"/><path d="M88.5-115v115m6-115v115m8-115v115m7-115v115M66.5-115v115m6-115v115m8-115v115m7-115v115M44.5-115v115m6-115v115m8-115v115m7-115v115M22.5-115v115m6-115v115m8-115v115m7-115v115M.5-115v115m6-115v115m8-115v115m7-115v115" fill="#9E005D" stroke="#7E340C" stroke-miterlimit="10"/></pattern><linearGradient id="a" gradientUnits="userSpaceOnUse" x1="181.703" y1="267.704" x2="181.703" y2="41.537"><stop offset=".034" stop-color="#FFCC8D"/><stop offset=".322" stop-color="#D9CBB6"/><stop offset=".551" stop-color="#BECAD3"/><stop offset=".727" stop-color="#B9D5E6"/><stop offset="1" stop-color="#B3E4FF"/></linearGradient><path fill="url(#a)" d="M34.6 41.6h294.3v231.7h-294.3z"/><path fill="#7E340C" d="M35.2 40.9v233h301v-233h-301zm289 223h-277v-213h277v213z"/><path stroke="#7E340C" stroke-width="10" stroke-miterlimit="10" d="M181.2 50.9v223m-146-116h289" fill="none"/><path d="M318.8 94.9s4.5 16.6 13.6 18.1c0 0 21.2 3.9 24.2-18.1h-37.8zm-43.3 0s4.5 16.6 13.6 18.1c0 0 21.2 3.9 24.2-18.1h-37.8zm-43.3 0s4.5 16.6 13.6 18.1c0 0 21.2 3.9 24.2-18.1h-37.8zm-43.4 0s4.5 16.6 13.6 18.1c0 0 21.2 3.9 24.2-18.1h-37.8zm-43.3 0s4.5 16.6 13.6 18.1c0 0 21.2 3.9 24.2-18.1h-37.8zm-43.3 0s4.5 16.6 13.6 18.1c0 0 21.2 3.9 24.2-18.1h-37.8zm-43.3 0s4.5 16.6 13.6 18.1c0 0 21.2 3.9 24.2-18.1h-37.8zm-43.4 0s4.5 16.6 13.6 18.1c0 0 21.2 3.9 24.2-18.1h-37.8z" fill="#D8AC89"/><path d="M318.8 94.9s4.5 16.6 13.6 18.1c0 0 21.2 3.9 24.2-18.1h-37.8zm-43.3 0s4.5 16.6 13.6 18.1c0 0 21.2 3.9 24.2-18.1h-37.8zm-43.3 0s4.5 16.6 13.6 18.1c0 0 21.2 3.9 24.2-18.1h-37.8zm-43.4 0s4.5 16.6 13.6 18.1c0 0 21.2 3.9 24.2-18.1h-37.8zm-43.3 0s4.5 16.6 13.6 18.1c0 0 21.2 3.9 24.2-18.1h-37.8zm-43.3 0s4.5 16.6 13.6 18.1c0 0 21.2 3.9 24.2-18.1h-37.8zm-43.3 0s4.5 16.6 13.6 18.1c0 0 21.2 3.9 24.2-18.1h-37.8zm-43.4 0s4.5 16.6 13.6 18.1c0 0 21.2 3.9 24.2-18.1h-37.8z" fill="url(#b)"/><path fill="#D8AC89" d="M13.4 6.1h341.5v89.2h-341.5z"/><path fill="url(#b)" d="M13.4 6.1h341.5v89.2h-341.5z"/><path fill="#7E340C" stroke="#7E340C" stroke-width="2" stroke-miterlimit="10" d="M14.2 92.9h342"/></svg>

<svg xmlns="http://www.w3.org/2000/svg" viewBox="0 0 370 280" enable-background="new 0 0 370 280"><pattern x="-215.8" y="-160.1" width="110" height="115" patternUnits="userSpaceOnUse" id="b" viewBox="0 -115 110 115" overflow="visible"><path fill="none" d="M0-115h110v115h-110z"/><g fill="#9E005D" stroke="#7E340C" stroke-miterlimit="10"><path d="M88.5-115v115M94.5-115v115M102.5-115v115M109.5-115v115"/></g><g fill="#9E005D" stroke="#7E340C" stroke-miterlimit="10"><path d="M66.5-115v115M72.5-115v115M80.5-115v115M87.5-115v115"/></g><g fill="#9E005D" stroke="#7E340C" stroke-miterlimit="10"><path d="M44.5-115v115M50.5-115v115M58.5-115v115M65.5-115v115"/></g><g fill="#9E005D" stroke="#7E340C" stroke-miterlimit="10"><path d="M22.5-115v115M28.5-115v115M36.5-115v115M43.5-115v115"/></g><g fill="#9E005D" stroke="#7E340C" stroke-miterlimit="10"><path d="M.5-115v115M6.5-115v115M14.5-115v115M21.5-115v115"/></g></pattern><linearGradient id="a" gradientUnits="userSpaceOnUse" x1="181.703" y1="267.704" x2="181.703" y2="41.537"><stop offset=".034" stop-color="#FFCC8D"/><stop offset=".322" stop-color="#D9CBB6"/><stop offset=".551" stop-color="#BECAD3"/><stop offset=".727" stop-color="#B9D5E6"/><stop offset="1" stop-color="#B3E4FF"/></linearGradient><path fill="url(#a)" d="M34.6 41.6h294.3v231.7h-294.3z"/><path fill="#7E340C" d="M35.2 40.9v233h301v-233h-301zm289 223h-277v-213h277v213z"/><path stroke="#7E340C" stroke-width="10" stroke-miterlimit="10" fill="none" d="M181.2 50.9v223M35.2 157.9h289"/><g fill="#D8AC89"><path d="M318.8 94.9s4.5 16.6 13.6 18.1c0 0 21.2 3.9 24.2-18.1h-37.8zM275.5 94.9s4.5 16.6 13.6 18.1c0 0 21.2 3.9 24.2-18.1h-37.8zM232.2 94.9s4.5 16.6 13.6 18.1c0 0 21.2 3.9 24.2-18.1h-37.8zM188.8 94.9s4.5 16.6 13.6 18.1c0 0 21.2 3.9 24.2-18.1h-37.8zM145.5 94.9s4.5 16.6 13.6 18.1c0 0 21.2 3.9 24.2-18.1h-37.8zM102.2 94.9s4.5 16.6 13.6 18.1c0 0 21.2 3.9 24.2-18.1h-37.8zM58.9 94.9s4.5 16.6 13.6 18.1c0 0 21.2 3.9 24.2-18.1h-37.8zM15.5 94.9s4.5 16.6 13.6 18.1c0 0 21.2 3.9 24.2-18.1h-37.8z"/></g><g fill="url(#b)"><path d="M318.8 94.9s4.5 16.6 13.6 18.1c0 0 21.2 3.9 24.2-18.1h-37.8zM275.5 94.9s4.5 16.6 13.6 18.1c0 0 21.2 3.9 24.2-18.1h-37.8zM232.2 94.9s4.5 16.6 13.6 18.1c0 0 21.2 3.9 24.2-18.1h-37.8zM188.8 94.9s4.5 16.6 13.6 18.1c0 0 21.2 3.9 24.2-18.1h-37.8zM145.5 94.9s4.5 16.6 13.6 18.1c0 0 21.2 3.9 24.2-18.1h-37.8zM102.2 94.9s4.5 16.6 13.6 18.1c0 0 21.2 3.9 24.2-18.1h-37.8zM58.9 94.9s4.5 16.6 13.6 18.1c0 0 21.2 3.9 24.2-18.1h-37.8zM15.5 94.9s4.5 16.6 13.6 18.1c0 0 21.2 3.9 24.2-18.1h-37.8z"/></g><path fill="#D8AC89" d="M13.4 6.1h341.5v89.2h-341.5z"/><path fill="url(#b)" d="M13.4 6.1h341.5v89.2h-341.5z"/><path fill="#7E340C" stroke="#7E340C" stroke-width="2" stroke-miterlimit="10" d="M14.2 92.9h342"/></svg>
